icons/identifier.svg

<svg width="16" height="16" viewBox="0 0 16 16" fill="none" xmlns="http://www.w3.org/2000/svg">
<path d="M8 2.75C8.45335 2.75 9.11693 2.8795 9.68848 3.29102C10.2983 3.73006 10.75 4.45556 10.75 5.5C10.75 5.58256 10.7439 5.67192 10.7344 5.7666C11.7752 6.23736 12.5 7.2834 12.5 8.5C12.5 8.55771 12.4974 8.61497 12.4941 8.67188C13.6619 9.08234 14.5 10.192 14.5 11.5C14.5 13.1569 13.1569 14.5 11.5 14.5H4.5C2.84315 14.5 1.5 13.1569 1.5 11.5C1.5 10.1923 2.33761 9.08259 3.50488 8.67188C3.50167 8.61499 3.5 8.55769 3.5 8.5C3.5 7.28372 4.22428 6.23754 5.26465 5.7666C5.25514 5.67195 5.25 5.58254 5.25 5.5C5.25 5.28671 5.17964 4.95025 4.99121 4.68848C4.83026 4.46493 4.55556 4.25 4 4.25V2.75H8ZM12.0342 10.0986C11.5027 10.9394 10.5683 11.5 9.5 11.5H6.5C5.43154 11.5 4.49631 10.9397 3.96484 10.0986C3.40074 10.3142 3 10.8601 3 11.5C3 12.2767 3.59028 12.9154 4.34668 12.9922L4.5 13H11.5L11.6533 12.9922C12.4097 12.9154 13 12.2767 13 11.5C13 10.8598 12.5987 10.3139 12.0342 10.0986ZM10.209 7.18848C9.76994 7.79826 9.04444 8.25 8 8.25C6.95556 8.25 6.23006 7.79826 5.79102 7.18848C5.78896 7.18562 5.7872 7.18255 5.78516 7.17969C5.3172 7.43359 5 7.93018 5 8.5C5 9.32843 5.67157 10 6.5 10H9.5C10.3284 10 11 9.32843 11 8.5C11 7.92987 10.6822 7.43346 10.2139 7.17969C10.2119 7.1824 10.2109 7.18577 10.209 7.18848ZM6.46484 4.25C6.67611 4.69995 6.75 5.15919 6.75 5.5C6.75 5.71329 6.82036 6.04975 7.00879 6.31152C7.16974 6.53507 7.44444 6.75 8 6.75C8.55556 6.75 8.83026 6.53507 8.99121 6.31152C9.17964 6.04975 9.25 5.71329 9.25 5.5C9.25 4.94444 9.03507 4.66974 8.81152 4.50879C8.54975 4.32036 8.21329 4.25 8 4.25H6.46484Z" fill="#9D633C"/>
</svg>

<svg xmlns="http://www.w3.org/2000/svg" width="16" height="16" fill="none" viewBox="0 0 16 16"><path fill="#9D633C" d="M8 2.75c.453 0 1.117.13 1.688.541.61.44 1.062 1.165 1.062 2.209q0 .125-.016.267a3 3 0 0 1 1.76 2.905A2.998 2.998 0 0 1 11.5 14.5h-7a3 3 0 0 1-.995-5.828 3 3 0 0 1 1.76-2.905A3 3 0 0 1 5.25 5.5c0-.213-.07-.55-.259-.812-.16-.223-.435-.438-.991-.438v-1.5zm4.034 7.349A3 3 0 0 1 9.5 11.5h-3a3 3 0 0 1-2.535-1.401 1.5 1.5 0 0 0 .382 2.893L4.5 13h7l.153-.008a1.5 1.5 0 0 0 .381-2.893m-1.825-2.91C9.769 7.798 9.044 8.25 8 8.25s-1.77-.452-2.209-1.062l-.006-.008A1.5 1.5 0 0 0 6.5 10h3a1.5 1.5 0 0 0 .714-2.82zM6.465 4.25c.211.45.285.91.285 1.25 0 .213.07.55.259.812.16.223.435.438.991.438s.83-.215.991-.438c.189-.262.259-.599.259-.812 0-.556-.215-.83-.438-.991A1.5 1.5 0 0 0 8 4.25z"/></svg>
